X:1
T:Les Tambourins
T:Les Tambourins 
T:François Couperin
T:Pieces de Clavecin - Vingtième Ordre 1er Air 
T:2e Air, Rondeau
C:Francois Couperin
%%score { 1 | ( 2 3 ) }
L:1/8
M:3/4
K:G
V:1 treble nm="Klavier" snm="Flgl."
V:2 bass 
V:3 bass 
V:1
"^Très légèrement - notes égales" Gd dc | PBG dg f/g/a/(f/ | Mg2) ::"_Reprise" da ab | %4
 Paf/g/ af/g/ a/g/Pf/e/ | !breath!d B/^c/ dB/c/ d/c/d/(e/ | !breath!Md) B/^c/ dB/c/ d/c/d/(e/ | %7
 !breath!Md2) da ab | Pge ^cA ea | Pfg/a/ ba/b/ c'/b/Pa/g/ | ad Mga/g/ f/g/a/(f/ | Mg2) :: %12
[K:Bb] Gd e/d/c/d/ | PB!breath!G Gd Pc/B/A/B/ |"^" MG2!fine! :| DA AB | PA/G/A/B/ c(B PA)G | %17
 DA/B/ c/(B/PA/)B/ DA/B/ | c/(B/PA/)G/ DA/B/ (c/B/)(PA/G/) | A2!D.C.! |] %20
V:2
 G,(G, PF,)D, | G,(G, PF,)E, D,D,, | G,,G,,, :: DD DG, | D z D z D z | D z D, z D, z | %6
 D, z D,, z D,, z | !breath!D,,2 D,D, D,B,, | E,E, A,A, ^C,A,, | D,G,/F,/ E, z G,, z | %10
 D,B,, E,C, D,D,, | G,,2 ::[K:Bb] G,(G, P^F,)D, | G,!breath!G, G,,/A,,/B,,/C,/ D,D,, | G,,2 :| %15
"^Reprise" D,D, D,G,, | D,2 ^F,,G,, D,=E, | ^F, z F, z F, z | ^F, z F, z G,G,, | %19
"_ripetere Air 1" D,D,, |] %20
V:3
 x4 | x6 | G,,2 :: x4 | x6 | x6 | x6 | x6 | x6 | x6 | x6 | x2 ::[K:Bb] x4 | x6 | x2 :| x4 | x6 | %17
 x6 | x6 | x2 |] %20

